assets/icons/qvision/card_travel.svg

<svg xmlns="http://www.w3.org/2000/svg" height="24" viewBox="0 0 24 24" width="24"><path d="M0 0h24v24H0z" fill="none"/><path d="M20 6h-3V4c0-1.11-.89-2-2-2H9c-1.11 0-2 .89-2 2v2H4c-1.11 0-2 .89-2 2v11c0 1.11.89 2 2 2h16c1.11 0 2-.89 2-2V8c0-1.11-.89-2-2-2zM9 4h6v2H9V4zm11 15H4v-2h16v2zm0-5H4V8h3v2h2V8h6v2h2V8h3v6z"/></svg>

<svg width="24" height="24" viewBox="0 0 24 24" fill="none" xmlns="http://www.w3.org/2000/svg">
<g clip-path="url(#clip0_147_3999)">
<path d="M20 6H17V4C17 2.89 16.11 2 15 2H9C7.89 2 7 2.89 7 4V6H4C2.89 6 2 6.89 2 8V19C2 20.11 2.89 21 4 21H20C21.11 21 22 20.11 22 19V8C22 6.89 21.11 6 20 6ZM9 4H15V6H9V4ZM20 19H4V17H20V19ZM20 14H4V8H7V10H9V8H15V10H17V8H20V14Z" fill="#323232"/>
</g>
<defs>
<clipPath id="clip0_147_3999">
<rect width="24" height="24" fill="white"/>
</clipPath>
</defs>
</svg>
